packages/ui-solid/icons/reply_24.svg

<svg width="24" height="24" viewBox="0 0 24 24" fill="none" xmlns="http://www.w3.org/2000/svg">
<path fill-rule="evenodd" clip-rule="evenodd" d="M11.741 3.60026C12.0901 3.95406 12.0863 4.52389 11.7325 4.87303L6.69333 9.84587H10.5933C12.5155 9.84586 14.0389 9.84585 15.2436 9.98915C16.4808 10.1363 17.4993 10.4454 18.3483 11.1485C18.6211 11.3745 18.8722 11.6256 19.0982 11.8984C19.8013 12.7474 20.1104 13.7659 20.2575 15.0031C20.4008 16.2078 20.4008 17.7312 20.4008 19.6534V19.7124C20.4008 20.2095 19.9979 20.6124 19.5008 20.6124C19.0038 20.6124 18.6008 20.2095 18.6008 19.7124C18.6008 17.718 18.5993 16.3017 18.4701 15.2157C18.3434 14.1498 18.1045 13.5207 17.7119 13.0465C17.5577 12.8603 17.3863 12.689 17.2002 12.5348C16.726 12.1422 16.0969 11.9033 15.031 11.7766C13.945 11.6474 12.5287 11.6459 10.5343 11.6459H6.69333L11.1325 16.0266C11.4863 16.3757 11.4901 16.9456 11.1409 17.2994C10.7918 17.6531 10.222 17.6569 9.86817 17.3078L3.86784 11.3865C3.69647 11.2174 3.60001 10.9866 3.60001 10.7459C3.60001 10.5051 3.69647 10.2744 3.86784 10.1053L10.4682 3.59183C10.822 3.24269 11.3918 3.24647 11.741 3.60026Z" fill="#007AFF"/>
</svg>

<svg xmlns="http://www.w3.org/2000/svg" width="24" height="24" fill="none"><path fill="currentColor" fill-rule="evenodd" d="M11.741 3.6a.9.9 0 0 1-.008 1.273l-5.04 4.973h3.9c1.922 0 3.446 0 4.65.143 1.238.147 2.256.456 3.105 1.16q.41.34.75.75c.703.848 1.012 1.867 1.16 3.104.143 1.205.143 2.728.143 4.65v.06a.9.9 0 1 1-1.8 0c0-1.995-.002-3.411-.13-4.497-.128-1.066-.366-1.695-.76-2.17a4 4 0 0 0-.51-.511c-.475-.393-1.104-.632-2.17-.758-1.086-.13-2.502-.131-4.497-.131h-3.84l4.439 4.38a.9.9 0 1 1-1.265 1.282l-6-5.921a.9.9 0 0 1 0-1.282l6.6-6.513a.9.9 0 0 1 1.273.008" clip-rule="evenodd"/></svg>
